icons/Battery_filled.svg

<svg width="24" height="24" viewBox="0 0 24 24" fill="none" xmlns="http://www.w3.org/2000/svg">
<path fill-rule="evenodd" clip-rule="evenodd" d="M14.25,2.5c0.4142,0 0.75,0.33579 0.75,0.75c0,0.41421 -0.3358,0.75 -0.75,0.75h-4.5c-0.41421,0 -0.75,-0.33579 -0.75,-0.75c0,-0.41421 0.33579,-0.75 0.75,-0.75zM6.25,8c0,-1.51878 1.23122,-2.75 2.75,-2.75h6c1.5188,0 2.75,1.23122 2.75,2.75v10.5c0,1.5188 -1.2312,2.75 -2.75,2.75h-6c-1.51878,0 -2.75,-1.2312 -2.75,-2.75zM9.75,9.5h4.5c0.4142,0 0.75,-0.33579 0.75,-0.75c0,-0.41421 -0.3358,-0.75 -0.75,-0.75h-4.5c-0.41421,0 -0.75,0.33579 -0.75,0.75c0,0.41421 0.33579,0.75 0.75,0.75zM9.75,11c-0.41421,0 -0.75,0.3358 -0.75,0.75c0,0.4142 0.33579,0.75 0.75,0.75h4.5c0.4142,0 0.75,-0.3358 0.75,-0.75c0,-0.4142 -0.3358,-0.75 -0.75,-0.75zM9.75,18.5h4.5c0.4142,0 0.75,-0.3358 0.75,-0.75c0,-0.4142 -0.3358,-0.75 -0.75,-0.75h-4.5c-0.41421,0 -0.75,0.3358 -0.75,0.75c0,0.4142 0.33579,0.75 0.75,0.75zM9.75,14c-0.41421,0 -0.75,0.3358 -0.75,0.75c0,0.4142 0.33579,0.75 0.75,0.75h4.5c0.4142,0 0.75,-0.3358 0.75,-0.75c0,-0.4142 -0.3358,-0.75 -0.75,-0.75z" fill="#002B51"/>
</svg>

<svg width="24" height="24" viewBox="0 0 24 24" fill="none" xmlns="http://www.w3.org/2000/svg">
<path fill-rule="evenodd" clip-rule="evenodd" d="M9.75 2.5C9.33579 2.5 9 2.83579 9 3.25C9 3.66421 9.33579 4 9.75 4H14.25C14.6642 4 15 3.66421 15 3.25C15 2.83579 14.6642 2.5 14.25 2.5H9.75ZM6.25 8C6.25 6.48122 7.48122 5.25 9 5.25H15C16.5188 5.25 17.75 6.48122 17.75 8V18.5C17.75 20.0188 16.5188 21.25 15 21.25H9C7.48122 21.25 6.25 20.0188 6.25 18.5V8ZM9 8.75C9 8.33579 9.33579 8 9.75 8H14.25C14.6642 8 15 8.33579 15 8.75C15 9.16421 14.6642 9.5 14.25 9.5H9.75C9.33579 9.5 9 9.16421 9 8.75ZM9.75 11C9.33579 11 9 11.3358 9 11.75C9 12.1642 9.33579 12.5 9.75 12.5H14.25C14.6642 12.5 15 12.1642 15 11.75C15 11.3358 14.6642 11 14.25 11H9.75ZM9 17.75C9 17.3358 9.33579 17 9.75 17H14.25C14.6642 17 15 17.3358 15 17.75C15 18.1642 14.6642 18.5 14.25 18.5H9.75C9.33579 18.5 9 18.1642 9 17.75ZM9.75 14C9.33579 14 9 14.3358 9 14.75C9 15.1642 9.33579 15.5 9.75 15.5H14.25C14.6642 15.5 15 15.1642 15 14.75C15 14.3358 14.6642 14 14.25 14H9.75Z" fill="#002B51"/>
</svg>
